source/svgs/bowtie/uE9C6-toggle-expand-all.svg

<svg xmlns="http://www.w3.org/2000/svg" viewBox="0 0 448 448"><path d="M64 0v96h-64v352h352v-64h96v-384h-384zm256 416h-288v-288h288v288zm96-64h-64v-256h-256v-64h320v320zm-160-64h-64v64h-32v-64h-64v-32h64v-64h32v64h64v32z"/></svg>

<svg xmlns="http://www.w3.org/2000/svg" viewBox="0 0 448 448"><path d="M64 0v96H0v352h352v-64h96V0H64zm256 416H32V128h288v288zm96-64h-64V96H96V32h320v320zm-160-64h-64v64h-32v-64H96v-32h64v-64h32v64h64v32z"/></svg>
